build/img/svg/icon-gift.svg

<svg width="32" height="38" viewBox="0 0 32 38" fill="none" xmlns="http://www.w3.org/2000/svg">
   <path d="M31 11.0087H18C24.9079 7.56667 25.254 5.22578 25 4.01095C24.4413 2.03684 22.1333 1.2017 20 2.01159C17.2063 3.07457 16.7619 7.02255 16 10.009C15.0349 6.97193 14.1841 2.98602 12 1.01191C11.3905 0.455115 10.3714 -0.089001 9 0.012235C6.96825 0.214707 3.78095 2.22663 5 5.01063C6.11746 7.69338 10.5111 9.64201 13 11.0087H1C0.187302 11.0087 0 12.2488 0 13.008V18.0064C0 18.8163 0.238095 20.0058 1 20.0058H2V38H31V20.0058C31.8127 20.0058 32 18.7657 32 18.0064V13.008C32 12.1982 31.7619 11.0087 31 11.0087ZM21 3.01127C22.0667 2.85942 23.8476 4.04888 24 5.01063C24.2032 6.37731 21.8635 7.45286 21 8.00966C19.7302 8.87017 19.1683 9.30036 18 10.009C18.4063 8.13615 18.7143 3.31498 21 3.01127ZM10 8.00966C8.88254 7.25039 6.94921 5.68134 7 4.01095C7.05079 2.1887 9.47619 0.644904 11 2.01159C12.9302 3.68199 14.2889 7.27564 15 10.009C13.3746 9.19913 11.6254 9.07264 10 8.00966ZM13 36.0006H3V20.0058H13V36.0006ZM13 18.0064H2V13.008H13V18.0064ZM18 36.0006H14V13.008H18V36.0006ZM29 36.0006H19V20.0058H29V36.0006ZM30 18.0064H19V13.008H30V18.0064Z" fill="#81B3D2"/>
</svg>

<svg width="32" height="38" fill="none" xmlns="http://www.w3.org/2000/svg"><path d="M31 11.009H18c6.908-3.442 7.254-5.783 7-6.998-.559-1.974-2.867-2.81-5-2-2.794 1.064-3.238 5.012-4 7.998-.965-3.037-1.816-7.023-4-8.997-.61-.557-1.629-1.101-3-1-2.032.203-5.22 2.215-4 4.999 1.117 2.682 5.511 4.631 8 5.998H1c-.813 0-1 1.24-1 1.999v4.998c0 .81.238 2 1 2h1V38h29V20.006c.813 0 1-1.24 1-2v-4.998c0-.81-.238-2-1-2zM21 3.01c1.067-.152 2.848 1.038 3 2 .203 1.366-2.137 2.442-3 2.999-1.27.86-1.832 1.29-3 1.999.406-1.873.714-6.694 3-6.998zM10 8.01C8.883 7.25 6.95 5.68 7 4.01c.05-1.822 2.476-3.366 4-2 1.93 1.671 3.289 5.265 4 7.998-1.625-.81-3.375-.936-5-2zM13 36H3V20.007h10V36zm0-17.994H2v-4.998h11v4.998zm5 17.995h-4V13.008h4v22.993zm11 0H19V20.006h10V36zm1-17.995H19v-4.998h11v4.998z" fill="#81B3D2"/></svg>
